X:50
T:Nymph. JGi.050
M:2/4
L:1/8
Q:1/4=110
S:Joshua Gibbons MS,1823,Tealby,Lincs.
R:quick step
O:Tealby,Lincolnshire
Z:VMP/R.Greig, 2009
K:C
cc/B/ cG|cege|fecB|c/B/c/d/ cG|cc/B/2 cG|cege|fdcB|c4:|
|:fee2|dcc2|Bcde|f/g/f/e/ d2|fee2|dcc2|Bf e/d/c/B/|{B}c4:|
|:e3g|c3e|{^c}d2fd|{c}B2AG|c2de|f3e|edcB|c4:|

